X:1
T:Left Hand Pattern: 1+8
C:zhiming@vmiis.com
%%composerfont 10
M:4/4
L:1/4
Q:1/4=120
K:C
V:1
"①"eefg|"⑤"gfed|"①"ccde|"⑤"e>dd2|
"①"eefg|"⑤"gfed|"①"ccde|"⑤"d>c"①"c2|
V:2 celf=bass
[C,C]4|[G,,G,]4|[C,C]4|[G,,G,]4|
[C,C]4|[G,,G,]4|[C,C]4|[G,,G,]2[C,C]2|